X: 40090
T: Thunderhead
R: hornpipe
M: 4/4
K: Gmajor
|:GE|DB,DE D2 B,D|EGGA G2 GA|BABA GBAG|E2 EFE2 GE|
DB,DE D2 B,D|EGGA G2 ge|dBBA GBAG|EGGA G2:|
|:GA|BddB d2 Bd|egge g2 ge|dBBA GBAG|E2 EFE2 GA|
BddB d2 Bd|egge g2 ge|dBBA GBAG|EGGA G2:|

